packages/dnb-ui-lib/assets/icons/confetti.svg

<svg width="16" height="16" viewBox="0 0 16 16" fill="none" xmlns="http://www.w3.org/2000/svg">
<path d="M1.08114 13.9898L1.74223 14.344L1.74268 14.3432L1.08114 13.9898ZM1.20123 14.7989L0.670309 15.3286L0.67182 15.3301L1.20123 14.7989ZM2.01141 14.9189L1.65868 14.257L1.65817 14.2573L2.01141 14.9189ZM6.54945 9.45701L6.01903 9.98725L6.01928 9.9875L6.54945 9.45701ZM5.30157 6.07143L4.77167 5.54066L4.77058 5.54176L5.30157 6.07143ZM8.68859 7.31856L9.21889 6.78819L9.21851 6.78781L8.68859 7.31856ZM14.4701 9.09346C14.7632 9.38611 15.2381 9.38572 15.5308 9.09259C15.8234 8.79946 15.823 8.32458 15.5299 8.03193L14.4701 9.09346ZM7.96772 0.469783C7.67489 0.176827 7.20001 0.176726 6.90706 0.469557C6.6141 0.762388 6.614 1.23726 6.90683 1.53022L7.96772 0.469783ZM11.8036 4.77617C11.4039 4.88462 11.1677 5.29662 11.2762 5.69638C11.3846 6.09614 11.7966 6.33229 12.1964 6.22383L11.8036 4.77617ZM14.0496 5.72104C14.4494 5.61258 14.6855 5.20059 14.5771 4.80083C14.4686 4.40106 14.0566 4.16491 13.6569 4.27337L14.0496 5.72104ZM9.77602 3.80415C9.66786 4.204 9.90431 4.61582 10.3042 4.72398C10.704 4.83214 11.1158 4.59569 11.224 4.19585L9.77602 3.80415ZM11.7255 2.34184C11.8337 1.942 11.5972 1.53018 11.1974 1.42201C10.7975 1.31385 10.3857 1.55031 10.2776 1.95015L11.7255 2.34184ZM7.33054 4.16189C7.1438 4.53162 7.29215 4.98273 7.66189 5.16946C8.03162 5.3562 8.48273 5.20785 8.66946 4.83811L7.33054 4.16189ZM11.163 7.32996C10.793 7.51606 10.6439 7.96691 10.83 8.33697C11.0161 8.70702 11.4669 8.85614 11.837 8.67004L11.163 7.32996ZM4.42539 6.13722L0.419603 13.6364L1.74268 14.3432L5.74846 6.84396L4.42539 6.13722ZM0.420052 13.6356C0.120709 14.1943 0.224059 14.8814 0.670311 15.3286L1.73216 14.2692C1.75046 14.2875 1.75627 14.3178 1.74223 14.344L0.420052 13.6356ZM0.67182 15.3301C1.11954 15.7763 1.80622 15.8787 2.36466 15.5805L1.65817 14.2573C1.68259 14.2443 1.7121 14.2492 1.73065 14.2676L0.67182 15.3301ZM2.36414 15.5808L9.89107 11.5695L9.1856 10.2458L1.65868 14.257L2.36414 15.5808ZM9.4063 10.1736C9.4424 10.1376 9.31621 10.2825 8.76064 10.0779C8.27086 9.89761 7.66083 9.50737 7.07962 8.92652L6.01928 9.9875C6.71827 10.6861 7.50638 11.2146 8.24239 11.4856C8.91261 11.7323 9.83983 11.8611 10.4666 11.2346L9.4063 10.1736ZM7.07987 8.92677C6.49878 8.34548 6.10847 7.73593 5.92808 7.24662C5.7236 6.69197 5.86806 6.56551 5.83256 6.6011L4.77058 5.54176C4.14497 6.16893 4.27358 7.09525 4.52067 7.76548C4.79186 8.50106 5.32054 9.28852 6.01903 9.98725L7.07987 8.92677ZM5.83146 6.60219C5.79507 6.63853 5.92128 6.49361 6.4775 6.69851C6.9676 6.87905 7.57776 7.26929 8.15867 7.8493L9.21851 6.78781C8.51984 6.09024 7.73185 5.56204 6.99601 5.29097C6.32629 5.04427 5.39878 4.91458 4.77167 5.54066L5.83146 6.60219ZM8.1583 7.84892C8.73958 8.43013 9.13001 9.03992 9.3104 9.52935C9.51503 10.0845 9.36992 10.21 9.4063 10.1736L10.4666 11.2346C11.0937 10.6079 10.9648 9.68062 10.7178 9.0106C10.4467 8.27483 9.9178 7.48701 9.21889 6.78819L8.1583 7.84892ZM12.1964 6.22383L14.0496 5.72104L13.6569 4.27337L11.8036 4.77617L12.1964 6.22383ZM11.224 4.19585L11.7255 2.34184L10.2776 1.95015L9.77602 3.80415L11.224 4.19585ZM8.66946 4.83811C9.38376 3.42381 9.15065 1.65322 7.96772 0.469783L6.90683 1.53022C7.61902 2.24271 7.76107 3.30944 7.33054 4.16189L8.66946 4.83811ZM11.837 8.67004C12.6912 8.24045 13.7587 8.3832 14.4701 9.09346L15.5299 8.03193C14.3472 6.85115 12.5772 6.61877 11.163 7.32996L11.837 8.67004Z" fill="black"/>
</svg>

<svg width="16" height="16" viewBox="0 0 16 16" fill="none" xmlns="http://www.w3.org/2000/svg"><path d="M1.081 13.99l.661.354-.66-.354zm.12.809l-.53.53v.001l.53-.531zm.81.12l-.352-.662.352.662zM6.55 9.457l-.53.53.53-.53zM5.302 6.071l-.53-.53H4.77l.53.53zM8.689 7.32l.53-.53v-.001l-.53.53zm5.781 1.774a.75.75 0 001.06-1.061l-1.06 1.061zM7.968.47a.75.75 0 10-1.061 1.06L7.967.47zm3.836 4.306a.75.75 0 00.392 1.448l-.392-1.448zm2.246.945a.75.75 0 00-.393-1.448l.393 1.448zM9.776 3.804a.75.75 0 001.448.392l-1.448-.392zm1.95-1.462a.75.75 0 10-1.448-.392l1.447.392zM7.33 4.162a.75.75 0 101.338.676L7.33 4.162zm3.832 3.168a.75.75 0 00.674 1.34l-.674-1.34zM4.425 6.137l-4.005 7.5 1.323.706 4.005-7.499-1.323-.707zM.42 13.636c-.3.558-.196 1.245.25 1.693l1.062-1.06a.064.064 0 01.01.075L.42 13.636zm.252 1.694a1.438 1.438 0 001.693.25l-.707-1.323a.062.062 0 01.073.01L.67 15.33zm1.692.25l7.527-4.01-.705-1.324-7.527 4.011.705 1.324zm7.042-5.406c.036-.036-.09.109-.645-.096-.49-.18-1.1-.57-1.681-1.151l-1.06 1.06c.698.7 1.486 1.228 2.222 1.499.67.246 1.598.375 2.225-.251l-1.06-1.061zM7.08 8.927c-.581-.582-.972-1.191-1.152-1.68-.204-.555-.06-.681-.095-.646L4.77 5.541c-.626.628-.497 1.554-.25 2.224.27.736.8 1.524 1.498 2.222l1.06-1.06zM5.83 6.602c-.036.037.09-.108.646.097.49.18 1.1.57 1.682 1.15l1.06-1.061c-.7-.698-1.487-1.226-2.223-1.497-.67-.247-1.597-.376-2.224.25l1.06 1.061zM8.158 7.85c.582.581.972 1.19 1.152 1.68.205.556.06.681.096.645l1.06 1.06c.628-.626.499-1.553.252-2.223-.271-.736-.8-1.524-1.5-2.223l-1.06 1.06zm4.038-1.625l1.854-.503-.393-1.448-1.853.503.392 1.448zm-.972-2.028l.502-1.854-1.448-.392-.502 1.854 1.448.392zm-2.555.642A3.774 3.774 0 007.968.47L6.907 1.53c.712.713.854 1.78.424 2.632l1.338.676zm3.168 3.832a2.28 2.28 0 012.633.423l1.06-1.061a3.78 3.78 0 00-4.367-.702l.674 1.34z" fill="#000"/></svg>
